!!!OTL: The Brisk Young Lady 
!!!id: HA046
**kern
*clefF4
*k[]
*G:
*M6/8
{8d
=1
8g
8a
8g
4b
16b
16cc
=2
8.dd
16cc
8b
4a}
{8g
=3
8.f
16g
8f
4a
8b
=4
8cc
8ff
8dd
8cc
8a}
{8f
=5
8g
8a
8g
4b
16b
16cc
=6
8dd
8cc
8b
4a}
{8cc
=7
4dd
8g
8g
8a
8f#
=8
4.g
4g}
{8a
=9
8.b
16cc
16dd
16ee
4ff#
16gg
16gg
=10
8ff
8dd
8b
8ff
8dd}
{8b
=11
8.f
16g
8f
4a
16a
16b
=12
8cc
8ff
8dd
8cc
8a}
{8f
=13
8.b
16cc
16dd
16ee
4ff
16gg
16gg
=14
8ff
8dd
8b
8ff
8dd}
{8ff#
=15
4gg
8g
8g
8a
8f#
=16
4.g
4g}
==
*-
!!!minrhy: 16
!!!meter: 6/8 
!!!cut: The Brisk Young Lady 
!!!key: HA046  16  g 6/8 
!!!bem: Vorschlge; Triller
!!!fog: a--b--av-c--d--bw-dv-e--
!! Haydn: Volksliedbearbeitungen, Bd1
